share/icons/Flat-Remix-Blue-Dark/apps/scalable/unknown-horizons.svg

<svg xmlns="http://www.w3.org/2000/svg" xmlns:xlink="http://www.w3.org/1999/xlink" width="512" height="512" version="1.1" viewBox="0 0 384 384"> <defs> <filter id="alpha" width="100%" height="100%" x="0%" y="0%" filterUnits="objectBoundingBox"> <feColorMatrix in="SourceGraphic" type="matrix" values="0 0 0 0 1 0 0 0 0 1 0 0 0 0 1 0 0 0 1 0"/> </filter> <mask id="mask0"> <g filter="url(#alpha)"> <rect width="384" height="384" x="0" y="0" style="fill:rgb(0%,0%,0%);fill-opacity:0.2"/> </g> </mask> <clipPath id="clip1"> <rect width="384" height="384" x="0" y="0"/> </clipPath> <g id="surface5" clip-path="url(#clip1)"> <path style="fill:rgb(0%,0%,0%)" d="M 254.398438 276 L 24 276 C 24 276 74.398438 348 225.601562 348 C 326.398438 348 360 297.601562 360 272.398438 C 360 250.597656 360 240 343.199219 240 L 271.199219 240 C 254.398438 240 254.398438 255.855469 254.398438 276 Z M 254.398438 276"/> </g> <mask id="mask1"> <g filter="url(#alpha)"> <rect width="384" height="384" x="0" y="0" style="fill:rgb(0%,0%,0%);fill-opacity:0.2"/> </g> </mask> <clipPath id="clip2"> <rect width="384" height="384" x="0" y="0"/> </clipPath> <g id="surface8" clip-path="url(#clip2)"> <path style="fill:rgb(0%,0%,0%)" d="M 228 96 L 228 48 L 288 72 Z M 228 96"/> </g> <mask id="mask2"> <g filter="url(#alpha)"> <rect width="384" height="384" x="0" y="0" style="fill:rgb(0%,0%,0%);fill-opacity:0.2"/> </g> </mask> <clipPath id="clip3"> <rect width="384" height="384" x="0" y="0"/> </clipPath> <g id="surface11" clip-path="url(#clip3)"> <path style="fill:rgb(0%,0%,0%)" d="M 228 96 L 228 276 C 228 276 156 234.871094 156 186 C 156 137.128906 228 96 228 96 Z M 228 96"/> </g> <mask id="mask3"> <g filter="url(#alpha)"> <rect width="384" height="384" x="0" y="0" style="fill:rgb(0%,0%,0%);fill-opacity:0.2"/> </g> </mask> <clipPath id="clip4"> <rect width="384" height="384" x="0" y="0"/> </clipPath> <g id="surface14" clip-path="url(#clip4)"> <path style="fill:rgb(0%,0%,0%)" d="M 120 156 L 120 276 C 120 276 72 248.578125 72 216 C 72 183.421875 120 156 120 156 Z M 120 156"/> </g> <mask id="mask4"> <g filter="url(#alpha)"> <rect width="384" height="384" x="0" y="0" style="fill:rgb(0%,0%,0%);fill-opacity:0.4"/> </g> </mask> <clipPath id="clip5"> <rect width="384" height="384" x="0" y="0"/> </clipPath> <g id="surface17" clip-path="url(#clip5)"> <path style="fill:rgb(0%,0%,0%)" d="M 270 254 C 270 254 270 246 279 246 C 288 246 288 254 288 254 L 288 270 L 270 270 Z M 270 254"/> </g> <mask id="mask5"> <g filter="url(#alpha)"> <rect width="384" height="384" x="0" y="0" style="fill:rgb(0%,0%,0%);fill-opacity:0.4"/> </g> </mask> <clipPath id="clip6"> <rect width="384" height="384" x="0" y="0"/> </clipPath> <g id="surface20" clip-path="url(#clip6)"> <path style="fill:rgb(0%,0%,0%)" d="M 300 254 C 300 254 300 246 309 246 C 318 246 318 254 318 254 L 318 270 L 300 270 Z M 300 254"/> </g> <mask id="mask6"> <g filter="url(#alpha)"> <rect width="384" height="384" x="0" y="0" style="fill:rgb(0%,0%,0%);fill-opacity:0.4"/> </g> </mask> <clipPath id="clip7"> <rect width="384" height="384" x="0" y="0"/> </clipPath> <g id="surface23" clip-path="url(#clip7)"> <path style="fill:rgb(0%,0%,0%)" d="M 330 254 C 330 254 330 246 339 246 C 348 246 348 254 348 254 L 348 270 L 330 270 Z M 330 254"/> </g> <mask id="mask7"> <g filter="url(#alpha)"> <rect width="384" height="384" x="0" y="0" style="fill:rgb(0%,0%,0%);fill-opacity:0.101961"/> </g> </mask> <clipPath id="clip8"> <rect width="384" height="384" x="0" y="0"/> </clipPath> <g id="surface26" clip-path="url(#clip8)"> <path style="fill:rgb(100.000%,100.000%,100.000%)" d="M 271.195312 234 C 254.394531 234 254.402344 249.855469 254.402344 270 L 24 270 C 24 270 25.667969 272.316406 29.074219 276 L 254.402344 276 C 254.402344 255.855469 254.394531 240 271.195312 240 L 343.195312 240 C 358.554688 240 359.792969 249.332031 359.90625 267.515625 C 359.917969 267.15625 360 266.753906 360 266.402344 C 360 244.601562 359.996094 234 343.195312 234 Z M 271.195312 234"/> </g> <mask id="mask8"> <g filter="url(#alpha)"> <rect width="384" height="384" x="0" y="0" style="fill:rgb(0%,0%,0%);fill-opacity:0.101961"/> </g> </mask> <clipPath id="clip9"> <rect width="384" height="384" x="0" y="0"/> </clipPath> <g id="surface29" clip-path="url(#clip9)"> <path style="fill:rgb(100.000%,100.000%,100.000%)" d="M 228 90 C 228 90 156 131.128906 156 180 C 156 181.003906 156.082031 182 156.140625 183 C 158.980469 135.460938 228 96 228 96 Z M 228 90"/> </g> <mask id="mask9"> <g filter="url(#alpha)"> <rect width="384" height="384" x="0" y="0" style="fill:rgb(0%,0%,0%);fill-opacity:0.101961"/> </g> </mask> <clipPath id="clip10"> <rect width="384" height="384" x="0" y="0"/> </clipPath> <g id="surface32" clip-path="url(#clip10)"> <path style="fill:rgb(100.000%,100.000%,100.000%)" d="M 228 42 L 228 48 L 280.5 69 L 288 66 Z M 228 42"/> </g> <mask id="mask10"> <g filter="url(#alpha)"> <rect width="384" height="384" x="0" y="0" style="fill:rgb(0%,0%,0%);fill-opacity:0.101961"/> </g> </mask> <clipPath id="clip11"> <rect width="384" height="384" x="0" y="0"/> </clipPath> <g id="surface35" clip-path="url(#clip11)"> <path style="fill:rgb(100.000%,100.000%,100.000%)" d="M 120 150 C 120 150 72 177.421875 72 210 C 72 211.011719 72.179688 212 72.269531 213 C 75.066406 181.761719 120 156 120 156 Z M 120 150"/> </g> </defs> <g> <use mask="url(#mask0)" xlink:href="#surface5"/> <use mask="url(#mask1)" xlink:href="#surface8"/> <path style="fill:rgb(40.784%,29.803%,20.784%)" d="M 254.398438 270 L 24 270 C 24 270 74.398438 342 225.601562 342 C 326.398438 342 360 291.601562 360 266.398438 C 360 244.597656 360 234 343.199219 234 L 271.199219 234 C 254.398438 234 254.398438 249.855469 254.398438 270 Z M 254.398438 270"/> <use mask="url(#mask2)" xlink:href="#surface11"/> <path style="fill:rgb(80.000%,80.000%,80.000%)" d="M 228 90 L 228 270 C 228 270 156 228.871094 156 180 C 156 131.128906 228 90 228 90 Z M 228 90"/> <path style="fill:rgb(72.156%,9.019%,29.803%)" d="M 228 90 L 228 42 L 288 66 Z M 228 90"/> <use mask="url(#mask3)" xlink:href="#surface14"/> <path style="fill:rgb(80.000%,80.000%,80.000%)" d="M 120 150 L 120 270 C 120 270 72 242.578125 72 210 C 72 177.421875 120 150 120 150 Z M 120 150"/> <use mask="url(#mask4)" xlink:href="#surface17"/> <use mask="url(#mask5)" xlink:href="#surface20"/> <use mask="url(#mask6)" xlink:href="#surface23"/> <use mask="url(#mask7)" xlink:href="#surface26"/> <use mask="url(#mask8)" xlink:href="#surface29"/> <use mask="url(#mask9)" xlink:href="#surface32"/> <use mask="url(#mask10)" xlink:href="#surface35"/> </g> </svg>

<svg width="512" height="512" version="1.1" viewBox="0 0 384 384" xmlns="http://www.w3.org/2000/svg" xmlns:xlink="http://www.w3.org/1999/xlink"><defs><filter id="a" x="0" y="0" width="1" height="1"><feColorMatrix in="SourceGraphic" values="0 0 0 0 1 0 0 0 0 1 0 0 0 0 1 0 0 0 1 0"/></filter><clipPath><rect width="384" height="384"/></clipPath><mask id="u"><g filter="url(#a)"><rect width="384" height="384" fill-opacity=".2"/></g></mask><clipPath id="ac"><rect width="384" height="384"/></clipPath><g id="b" clip-path="url(#ac)"><path d="m228 96v-48l60 24z"/></g><mask id="s"><g filter="url(#a)"><rect width="384" height="384" fill-opacity=".2"/></g></mask><clipPath id="ab"><rect width="384" height="384"/></clipPath><g id="k" clip-path="url(#ab)"><path d="m228 96v180s-72-41.129-72-90 72-90 72-90z"/></g><mask id="r"><g filter="url(#a)"><rect width="384" height="384" fill-opacity=".2"/></g></mask><clipPath id="aa"><rect width="384" height="384"/></clipPath><g id="j" clip-path="url(#aa)"><path d="m120 156v120s-48-27.422-48-60 48-60 48-60z"/></g><mask id="q"><g filter="url(#a)"><rect width="384" height="384" fill-opacity=".4"/></g></mask><clipPath id="z"><rect width="384" height="384"/></clipPath><g id="i" clip-path="url(#z)"><path d="m270 254s0-8 9-8 9 8 9 8v16h-18z"/></g><mask id="p"><g filter="url(#a)"><rect width="384" height="384" fill-opacity=".4"/></g></mask><clipPath id="y"><rect width="384" height="384"/></clipPath><g id="h" clip-path="url(#y)"><path d="m300 254s0-8 9-8 9 8 9 8v16h-18z"/></g><mask id="o"><g filter="url(#a)"><rect width="384" height="384" fill-opacity=".4"/></g></mask><clipPath id="x"><rect width="384" height="384"/></clipPath><g id="g" clip-path="url(#x)"><path d="m330 254s0-8 9-8 9 8 9 8v16h-18z"/></g><mask id="n"><g filter="url(#a)"><rect width="384" height="384" fill-opacity=".10196"/></g></mask><clipPath id="w"><rect width="384" height="384"/></clipPath><g id="f" clip-path="url(#w)"><path d="m271.2 234c-16.801 0-16.793 15.855-16.793 36h-230.4s1.668 2.3164 5.0742 6h225.33c0-20.145-0.007813-36 16.793-36h72c15.359 0 16.598 9.332 16.711 27.516 0.011719-0.35938 0.09375-0.76172 0.09375-1.1133 0-21.801-0.003906-32.402-16.805-32.402z" fill="#fff"/></g><mask id="m"><g filter="url(#a)"><rect width="384" height="384" fill-opacity=".10196"/></g></mask><clipPath id="v"><rect width="384" height="384"/></clipPath><g id="e" clip-path="url(#v)"><path d="m228 90s-72 41.129-72 90c0 1.0039 0.082031 2 0.14062 3 2.8398-47.539 71.859-87 71.859-87z" fill="#fff"/></g><mask id="l"><g filter="url(#a)"><rect width="384" height="384" fill-opacity=".10196"/></g></mask><clipPath id="ae"><rect width="384" height="384"/></clipPath><g id="d" clip-path="url(#ae)"><path d="m228 42v6l52.5 21 7.5-3z" fill="#fff"/></g><mask id="t"><g filter="url(#a)"><rect width="384" height="384" fill-opacity=".10196"/></g></mask><clipPath id="ad"><rect width="384" height="384"/></clipPath><g id="c" clip-path="url(#ad)"><path d="m120 150s-48 27.422-48 60c0 1.0117 0.17969 2 0.26953 3 2.7969-31.238 47.73-57 47.73-57z" fill="#fff"/></g></defs><path d="m229.77 84.991v188.84s-100.43-43.149-100.43-94.42c0-51.271 100.43-94.42 100.43-94.42z" fill="#fff" opacity=".2" stroke="#000" stroke-width="7.5"/><use transform="matrix(1.6291 0 0 1.0491 -52.102 -9.4286)" width="100%" height="100%" mask="url(#r)" stroke-width=".76491" xlink:href="#j"/><path d="m143.39 147.94v125.89s-78.198-28.768-78.198-62.946c0-34.178 78.198-62.946 78.198-62.946z" fill="#ccc"/><use transform="matrix(1.6291 0 0 1.0491 -52.102 -9.4286)" width="100%" height="100%" mask="url(#t)" stroke-width=".76491" xlink:href="#c"/><use transform="matrix(1.0491 0 0 1.0491 -9.4286 -9.4286)" width="100%" height="100%" mask="url(#u)" stroke-width=".95319" xlink:href="#b"/><path d="m257.46 273.83h-241.71s52.873 75.536 211.5 75.536c105.75 0 141-52.873 141-79.314 0-22.871 0-33.989-17.626-33.989h-75.536c-17.626 0-17.626 16.634-17.626 37.768z" fill="#815631" stroke-width=".95319"/><use transform="matrix(1.3949 0 0 1.0491 -88.272 -9.4286)" width="100%" height="100%" mask="url(#s)" stroke-width=".82664" xlink:href="#k"/><path d="m229.77 84.991v188.84s-100.43-43.149-100.43-94.42c0-51.271 100.43-94.42 100.43-94.42z" fill="#fff"/><path d="m229.77 84.991v-50.357l62.946 25.179z" fill="#b8174a" stroke-width=".95319"/><use transform="matrix(1.0491 0 0 1.0491 -9.4286 -9.4286)" width="100%" height="100%" mask="url(#q)" stroke-width=".95319" xlink:href="#i"/><use transform="matrix(1.0491 0 0 1.0491 -9.4286 -9.4286)" width="100%" height="100%" mask="url(#p)" stroke-width=".95319" xlink:href="#h"/><use transform="matrix(1.0491 0 0 1.0491 -9.4286 -9.4286)" width="100%" height="100%" mask="url(#o)" stroke-width=".95319" xlink:href="#g"/><use transform="matrix(1.0491 0 0 1.0491 -9.4286 -9.4286)" width="100%" height="100%" mask="url(#n)" stroke-width=".95319" xlink:href="#f"/><use transform="matrix(1.3949 0 0 1.0491 -88.272 -9.4286)" width="100%" height="100%" mask="url(#m)" stroke-width=".82664" xlink:href="#e"/><use transform="matrix(1.0491 0 0 1.0491 -9.4286 -9.4286)" width="100%" height="100%" mask="url(#l)" stroke-width=".95319" xlink:href="#d"/><path transform="scale(.75)" d="m490.96 351.04c-0.83338 35.554-48.219 104.78-187.96 104.78-170.4 0-249.18-65.306-273.4-90.715h-8.6035s70.498 100.71 282 100.71c141 0 188-70.5 188-105.75 0-3.2164-0.01149-6.1606-0.03906-9.0293z" fill="#b48964" stroke-width="1.2709"/></svg>
